X:1
T:Ο ΘΡΙΑΜΒΟΣ ΤΟΥ ΒΕΝΙΖΕΛΟΥ
T:Ο ΘΡΙΑΜΒΟΣ ΤΟΥ ΒΕΝΙΖΕΛΟΥ
T:γπο ΑΚΡΙΒΗΣ ΑΝΕΜΟΓΙΑΝΝΗ
C:γπο ΑΚΡΙΒΗΣ ΑΝΕΜΟΓΙΑΝΝΗ
%%score { 1 | 2 }
L:1/8
Q:1/4=90
M:2/4
K:F
V:1 treble nm="Piano" snm="Pno."
V:2 bass 
V:1
"^Tempo di marcia."!mf! .F.F/.F/ .F.C | .F.C FA | c2 d>=B | c2 z!ff! (3^f/g/a/ | %4
 [cgb][cgb]/[cgb]/ [cgb][cfa] | [ceg][ceg]/[ceg]/ [ceg][Acf] | [GBce][GBg] [GBd][GBe] | %7
 [Af]2!p! z ([FA]/[GB]/) ||S .[Ac].[Ad].[Ae].[Af] | [Afa] z z ([FA]/[GB]/) | .[Ac].[Ad].[Ae].[Af] | %11
 [Bgb] z z ([gb]/[fa]/) | .[eg].[df].[ce].[Bd] | [Be]2- [Be]"_cresc." ([c'e']/[bd']/) | %14
 [ac'][gb][fa][eg] |!f! [fa]/[gb]/[ac']!p! z ([FA]/[GB]/) | .[Ac].[Ad].[Ae].[Af] | %17
 [Afa] z z ([FA]/[GB]/) | .[Ac].[Ad].[Ae].[Af] | [Bd]!f! z z ([gb]/[fa]/) | [eg][df][ce][Bd] | %21
 [Ac][Acf][cfa] ([c'e']/[bd']/) | [ac']([fa]/[ac']/) .[gb]([eg]/a/) | [Acf]z/(3c/4d/4e/4 [Acf] || %24
!p! [EG]/"^FINE."[EG]/ |!p! [EG][FA][GB][Ac] | [GB] z z ([FA]/[GB]/) | [FA][GB][Ac][Bd] | %28
 [Ac] z z2 |!f!{/c} [fa] z!>(!{/A} [cf] z |{/F} [Ac]!>)! z{/C} [FA] z |{/C} [GB][egc'] z [egc'] | %32
!<(! z [egc']!<)!!>(! z [egc']!>)! |{/G} [eg] z{/G} [ce] z |{/C} [GB] z{/C} [EG] z | %35
{/C} [FA] z{/E} [Bd] z |{/C} [Ac] z z!p! [Ac]/[Ac]/ | [Ac][Ad][Ae][Af] | [Bd][cd^f][Bdg][Bdgb] | %39
 [dgbd'] z !>!c3/2(d/4e/4) | [Acf]!p!(3g/a/g/ eg |:[K:C]!p! [ceg] z [cfa] z | [ceg] z [c_e^f]2 | %43
 [ceg]4- | [ceg](3g/a/g/ .e.f | [ceg] z [cfa] z | [ceg] z [A^ce] z | [Adf]4- | %48
 [Adf](3a/b/a/ .^g.a |!p! [dfa]>[dfa] [dfa]2- | [dfa](3a/b/a/ [Bd^g][Bdb] | [dfa]4- | %52
 [dfa][eg]!ff![^d^f][=fa] |!p! !>![eg]2 !>![ce]2 | !>![df]2 !>![GBg]2 |1 !>![Gce]4- | %56
 [Gce](3g/a/g/ .e.g :|2!ff! [Gce] z [GBdg]3/2(a/4b/4) | [cec'] z z [FA]/[G_B]/ || %59
[K:Bb][K:bass]!p!{F,G,A,} B,2 z2 | z2[K:treble]!p! z F || .B!<(!.F .d.B | .f.d .b.d | %63
 [Bdg]2 [Bdf]2 |{/=e} [Bdf]2!<)!!f! z!<(! F | .B.F .d.B | .f.d bd!<)! | [Aef]2 [ce]2 | %68
{/d} [ce]2 z A |!<(! cA ec | ae c'b | [gb]2 [fa]>[ac']!<)! |{/[ac']} [ce]4 | %73
!f!{[fa][gb]} [fa]2 [eg]>A | [eg]2 z2 |!f!{[eg][fa]} [eg]2 [df]>B |{/d} [FBd]2 z F | %77
 .B!<(!.F .d.B | .f.d .b.d | [Bdg]2 [Bdf]2 |{/=e} [Bdf]2!<)! z d |!f! .d.d .e.f | %82
 !>![Bdb]2!<(! !>![Bd_a]2 |{_ab} [Bd_a]2!<)! [eg]>[d^f] | [eg]2 z/!<(! (g/^f/g/)!<)! | %85
{/g} [c'e']3 (3(g/=f/e/) |!f!{/d} [bd']3 (3(f/=e/g/) | f3 (3(c/d/e/ |!f! f3) (3d/e/f/ | %89
!f!{/g} [c'e']3 (3(g/=f/e/) |{/d} [bd']3 (3(f/=e/g/) |!f! (f2 f')(3f/g/a/ | %92
 [Bb][Bdfb]/[Bdfb]/ [Bdfb] z || %93
V:2
 .F,.F,/.F,/ .F,.C, | .F,.C, .F,.A, | C2 D>=B, | C2 z2 | [C,,C,][G,CE]/[G,CE]/ [G,CE][A,CF] | %5
 [C,,C,][G,CE]/[G,CE]/ [G,CE][F,A,CF] | [C,E,G,C][^C,^C] [D,D][=C,=C] | %7
 [F,,F,][F,A,C] [C,,C,][F,A,C] || [F,,F,][A,CF] [C,,C,][A,CF] | [F,,F,][A,CF] [C,,C,][A,CF] | %10
 [F,,F,][A,CF] [C,,C,][A,CF] | [E,,E,][B,CE] [C,,C,][B,CE] | [E,,E,][B,CE] [C,,C,][B,CE] | %13
 [C,,C,][G,B,C]/[G,B,C]/ [G,B,C][G,B,C] | [C,,C,][B,CE] [C,,C,][B,CE] | %15
 [F,,F,][A,CF] [C,C][A,,A,] | [F,,F,][A,CF] [C,,C,][A,CF] | [F,,F,][A,CF] [C,,C,][A,CF] | %18
 [F,,F,][A,CF] [C,,C,][A,CF] | [B,,,B,,][G,B,D]/[G,B,D]/ [G,B,D][G,B,D] | %20
 [B,,,B,,][C,,C,][D,,D,][E,,E,] | [F,,F,]C, [F,,F,][F,A,C] | [C,,C,][A,CF] [C,,C,][B,CE] | %23
 [F,A,CF] z [F,A,CF] || z | E,[B,C] C,[B,C] | E,G,/A,/ B,2 | F,[A,C] C,[A,C] | F,A,/B,/ C z | %29
 F,[A,C] C,[A,C] | F,[A,C] C,[A,C] | [C,,C,](C,/D,/ E,)(E,/F,/ | G,)(G,/A,/) .[B,,B,].[G,,G,] | %33
 [C,,C,][B,CE] [E,,E,][B,CE] | [G,,G,][B,CE] [C,,C,][G,B,C] | F,(E,/D,/) C,(D,/E,/) | %36
 F,[A,CF] [C,C][A,,A,] | [F,,F,][A,CF] [F,,F,][A,CF] | [G,,G,][D,,D,][B,,,B,,][D,,D,] | %39
 [G,,G,] z ((!>![C,E,G,B,]2 | [F,A,])) z z2 |:[K:C] C,[E,G,C] C,[E,A,C] | C,[E,G,C] C,[^F,A,C] | %43
 C,[E,G,C] G,,[E,G,C] | C,[E,G,C] G,,[E,G,C] | C,[E,G,C] G,,[E,G,C] | C,[E,G,C] G,,[E,G,A,] | %47
 D,[F,A,D] A,,[F,A,D] | F,,[F,A,D] A,,[F,A,D] | D,[F,A,D] A,,[F,A,D] | D,[F,A,D] D,[^G,B,D] | %51
 D,[F,A,D] A,,[F,A,D] | [D,F,A,D] z z2 | [G,,G,][G,CE] [G,,G,][G,CE] | G,,[G,B,D] G,,[G,DF] |1 %55
 C,[E,G,C] G,,[E,G,C] | [C,E,G,C] z z2 :|2 [C,E,G,C] z [G,B,DF]2 | %58
 [CE] !>![_B,,_B,]!>![A,,A,]!>![G,,G,] ||[K:Bb] B,,[F,B,D] F,,[F,B,D] | B,,[F,B,D] F,,[F,B,D] || %61
 B,,[F,B,D] F,,[F,B,D] | B,,[F,B,D] F,,[F,B,D] | B,,[F,B,D] F,,[F,B,D] | %64
 B,,[F,B,D]/[F,B,D]/ [F,B,D][F,B,D] | B,,[F,B,D] F,,[F,B,D] | B,,[F,B,D] F,,[F,B,D] | %67
 C,[F,A,E] F,,[F,A,E] | F,,[F,A,E]/[F,A,E]/ [F,A,E][F,A,E] | A,,[F,A,E] F,,[F,A,E] | %70
 C,[F,A,E] F,,[F,A,E] | C,[F,A,E] F,,[F,A,E] | A,,[F,A,C] F,,[F,A,C] | C,[F,A,E] F,,[F,A,E] | %74
 [F,,F,][F,A,E]/[F,A,E]/ [F,A,E][F,A,E] | [B,,,B,,][F,B,D] [F,,F,][F,B,D] | %76
 [B,,,B,,][F,B,D]/[F,B,D]/ [F,B,D][F,B,D] | B,,[F,B,D] F,,[F,B,D] | B,,[F,B,D] F,,[F,B,D] | %79
 B,,[F,B,D] F,,[F,B,D] | [B,,,B,,][F,B,D]/[F,B,D]/ [F,B,D][F,B,D] | B,,[F,B,D] _A,,[_A,B,D] | %82
 F,,[_A,B,D] [B,,,B,,][A,B,D] | [B,,,B,,][_A,B,D] [E,,E,][G,B,E] | %84
 [E,,E,][G,B,E]/[G,B,E]/ [G,B,E][G,B,E] | C,[G,B,E]/[G,B,E]/ [G,B,E]/C,/D,/E,/ | %86
 [F,,F,][D,F,B,]/[D,F,B,]/ [D,F,B,][D,F,B,] | [F,,F,][A,CE]/[A,CE]/ [A,CE][A,CE] | %88
 [B,,,B,,][F,B,D]/[F,B,D]/ [F,B,D]/(B,,/C,/D,/) | E,[G,C]/[G,C]/ [G,C]/(C,/D,/E,/) | %90
 [F,,F,][D,F,B,]/[D,F,B,]/ [D,F,B,][D,F,B,] | F,,[F,A,E] F,,[F,A,E] | %92
 [B,D][B,,F,B,]/[B,,F,B,]/"^D.C." [B,,F,B,] z || %93

